dist/img/logo_not-image.svg

<svg width="135" height="41" viewBox="0 0 135 41" fill="none" xmlns="http://www.w3.org/2000/svg">
<path fill-rule="evenodd" clip-rule="evenodd" d="M134.103 33.3277C134.103 34.3065 133.928 35.2123 133.563 36.0305C133.198 36.8486 132.701 37.5499 132.073 38.1197C131.43 38.6895 130.685 39.1424 129.837 39.4638C128.975 39.7852 128.069 39.9606 127.091 39.9606C126.199 39.9606 125.367 39.8145 124.592 39.5369C123.818 39.2593 123.131 38.8648 122.532 38.3827C121.933 37.886 121.437 37.3162 121.042 36.6587C120.648 36.0013 120.385 35.2854 120.268 34.5111L121.247 34.3065C121.539 35.7529 122.226 36.8925 123.292 37.7252C124.359 38.558 125.659 38.9671 127.178 38.9671C128.07 38.9671 128.873 38.821 129.589 38.5288C130.305 38.2366 130.918 37.8421 131.43 37.3308C131.941 36.834 132.336 36.235 132.599 35.563C132.876 34.8909 133.008 34.1458 133.008 33.3569C133.008 32.6556 132.905 32.0274 132.701 31.4576C132.496 30.9024 132.16 30.3911 131.693 29.9382C131.225 29.4852 130.597 29.0762 129.808 28.7255C129.019 28.3749 128.04 28.0535 126.871 27.7467C125.79 27.4691 124.87 27.1477 124.125 26.7824C123.38 26.4172 122.766 26.0081 122.299 25.5552C121.831 25.1023 121.495 24.5763 121.276 23.9919C121.057 23.4075 120.954 22.7647 120.954 22.0634C120.954 21.1722 121.13 20.354 121.466 19.6089C121.802 18.8638 122.269 18.221 122.868 17.6804C123.467 17.1399 124.139 16.7308 124.914 16.4386C125.688 16.1464 126.521 16.0003 127.412 16.0003C129.063 16.0003 130.422 16.424 131.474 17.2567C132.54 18.1041 133.241 19.156 133.607 20.4563L132.555 20.7047C132.19 19.5651 131.547 18.6593 130.597 18.0018C129.647 17.3444 128.552 17.023 127.31 17.023C126.521 17.023 125.805 17.1398 125.148 17.3882C124.49 17.6366 123.935 17.9726 123.467 18.4255C123 18.8638 122.635 19.3898 122.386 19.9888C122.138 20.5878 122.006 21.2306 122.006 21.9319C122.006 22.5601 122.094 23.1153 122.269 23.5974C122.445 24.0796 122.766 24.5033 123.204 24.8977C123.643 25.2776 124.242 25.6282 124.987 25.9496C125.732 26.2711 126.652 26.5633 127.748 26.8408C128.917 27.1623 129.896 27.5275 130.699 27.922C131.503 28.3164 132.16 28.784 132.657 29.3099C133.154 29.8359 133.519 30.4203 133.738 31.0777C134.001 31.7352 134.103 32.4803 134.103 33.3277ZM115.987 39.6684L105.41 28.3749H109.442C110.289 28.3749 111.064 28.2434 111.765 27.9658C112.466 27.7028 113.051 27.323 113.547 26.8262C114.029 26.3295 114.409 25.7451 114.672 25.073C114.935 24.401 115.067 23.6413 115.067 22.7939C115.067 21.1138 114.57 19.7696 113.576 18.7762C112.583 17.7827 111.224 17.2859 109.515 17.2859H104.022V39.6684H102.97V16.2925H109.573C110.596 16.2925 111.502 16.4532 112.305 16.7892C113.109 17.1106 113.796 17.5781 114.351 18.1625C114.906 18.7469 115.344 19.4336 115.636 20.2372C115.929 21.0261 116.075 21.8881 116.075 22.7939C116.075 23.6121 115.943 24.4156 115.666 25.2045C115.388 25.9935 114.979 26.6801 114.409 27.2937C113.854 27.9074 113.153 28.4041 112.349 28.784C111.531 29.1638 110.581 29.3684 109.5 29.3684H107.82L117.39 39.683H115.987V39.6684ZM85.5546 39.6684V16.2925H97.3156V17.2713H86.6065V27.3376H96.9357V28.3165H86.6065V38.6603H97.3156V39.6391H85.5546V39.6684ZM74.904 40.4427L68.5487 19.1414L62.1933 40.4427L55.4874 16.3071H56.5393L62.2226 36.8048L68.5487 15.5474L74.8748 36.8048L80.558 16.3071H81.6099L74.904 40.4427ZM53.0767 27.9804C53.0767 29.646 52.7992 31.1946 52.2294 32.641C51.6742 34.0874 50.8999 35.3584 49.9064 36.4542C48.9275 37.5353 47.7733 38.3973 46.4584 39.0109C45.1435 39.6245 43.741 39.946 42.2362 39.946C40.7314 39.946 39.3288 39.6391 38.0139 39.0109C36.699 38.3973 35.5448 37.5353 34.566 36.4542C33.5871 35.373 32.8128 34.102 32.243 32.641C31.6878 31.1946 31.3956 29.6313 31.3956 27.9804C31.3956 26.3149 31.6732 24.7662 32.243 23.3198C32.7982 21.8735 33.5725 20.6024 34.566 19.5067C35.5448 18.4255 36.699 17.5635 38.0139 16.9499C39.3288 16.3363 40.7314 16.0149 42.2362 16.0149C43.741 16.0149 45.1435 16.3217 46.4584 16.9499C47.7733 17.5635 48.9275 18.4255 49.9064 19.5067C50.8853 20.5878 51.6596 21.8589 52.2294 23.3198C52.7992 24.7662 53.0767 26.3295 53.0767 27.9804ZM51.9956 27.9804C51.9956 26.4318 51.7472 25 51.2359 23.6705C50.7245 22.341 50.0379 21.1722 49.1613 20.1787C48.2847 19.1852 47.2474 18.4109 46.064 17.8411C44.8806 17.2859 43.6095 16.9938 42.2508 16.9938C40.8921 16.9938 39.621 17.2713 38.4376 17.8411C37.2542 18.3963 36.2169 19.1852 35.3403 20.1787C34.4637 21.1722 33.7624 22.341 33.2657 23.6705C32.7543 25 32.506 26.4464 32.506 27.9804C32.506 29.5291 32.7543 30.9609 33.2657 32.2904C33.777 33.6199 34.4637 34.7887 35.3403 35.7821C36.2169 36.7756 37.2542 37.5499 38.4376 38.1197C39.621 38.6749 40.8921 38.9671 42.2508 38.9671C43.6095 38.9671 44.8806 38.6895 46.064 38.1197C47.2474 37.5645 48.2847 36.7756 49.1613 35.7821C50.0379 34.7887 50.7392 33.6199 51.2359 32.2904C51.7472 30.9755 51.9956 29.5291 51.9956 27.9804ZM17.3555 39.6684V16.2925H18.4074V38.6749H29.1165V39.6538H17.3555V39.6684ZM1.5037 17.2859V27.3522H11.8329V28.3311H1.5037V39.6684H0.451782V16.2925H12.2128V17.2713H1.5037V17.2859Z" fill="#131313"/>
<path fill-rule="evenodd" clip-rule="evenodd" d="M94.2621 1.2883H92.2314V7.61439H91.384V1.2883H89.3532V0.528574H94.2621V1.2883ZM81.3324 5.56901C81.3324 6.18263 81.0986 6.67936 80.6311 7.08844C80.1636 7.49752 79.5792 7.70206 78.8925 7.70206C78.2204 7.70206 77.6507 7.51213 77.2124 7.11766C76.7594 6.7378 76.5257 6.25567 76.4819 5.71511L77.3146 5.53978C77.3292 5.94886 77.5046 6.28489 77.7968 6.53326C78.1036 6.78163 78.4834 6.89851 78.9363 6.89851C79.3892 6.89851 79.7691 6.78163 80.0467 6.53326C80.3389 6.28489 80.485 5.97808 80.485 5.59822C80.485 5.26219 80.3535 4.9846 80.1051 4.79467C79.8568 4.60474 79.4038 4.42943 78.7756 4.28333C78.0305 4.10801 77.5046 3.87425 77.1831 3.55283C76.8763 3.27524 76.7302 2.89539 76.7302 2.42787C76.7302 1.85808 76.9494 1.39056 77.3877 1.0107C77.826 0.630846 78.3665 0.440918 78.9948 0.440918C79.6084 0.440918 80.1197 0.601622 80.5434 0.93765C80.9233 1.24446 81.157 1.65354 81.2301 2.15028L80.3973 2.3256C80.3389 1.98957 80.1782 1.72659 79.9152 1.53666C79.6522 1.34673 79.3308 1.24447 78.9509 1.24447C78.5565 1.24447 78.2204 1.34674 77.9721 1.55128C77.7091 1.75582 77.5776 2.0188 77.5776 2.34021C77.5776 2.6178 77.6945 2.83695 77.9282 2.99766C78.162 3.15837 78.5711 3.31907 79.1555 3.46517C79.9444 3.6551 80.4996 3.91808 80.8356 4.25411C81.1716 4.59014 81.3324 5.02844 81.3324 5.56901ZM68.797 7.61439H67.7159L64.6478 3.93269H65.7143C66.1673 3.93269 66.5179 3.81581 66.8101 3.56744C67.0877 3.33368 67.2338 3.01226 67.2338 2.60318C67.2338 2.20871 67.0877 1.8873 66.8101 1.63893C66.5325 1.39056 66.1673 1.27368 65.7143 1.27368H64.3264V7.59979H63.479V0.513972H65.7874C66.4887 0.513972 67.0585 0.718508 67.4821 1.12759C67.8766 1.50744 68.0811 2.00417 68.0811 2.60318C68.0811 3.15836 67.9058 3.62588 67.5552 3.99113C67.2046 4.35638 66.7663 4.56092 66.2403 4.56092L68.797 7.61439ZM54.2017 7.61439H53.3543V0.528574H54.2017V7.61439ZM44.4715 1.2883H41.1551V3.6551H44.3546V4.41482H41.1697V7.629H40.3223V0.543187H44.5007V1.2883H44.4715Z" fill="#131313"/>
</svg>

<svg width="135" height="41" fill="none" xmlns="http://www.w3.org/2000/svg"><path fill-rule="evenodd" clip-rule="evenodd" d="M134.103 33.328c0 .978-.175 1.884-.54 2.703a6.192 6.192 0 01-1.49 2.089 7.181 7.181 0 01-2.236 1.344 7.766 7.766 0 01-2.746.497 7.355 7.355 0 01-2.499-.424 7.09 7.09 0 01-2.06-1.154 6.718 6.718 0 01-1.49-1.724 5.842 5.842 0 01-.774-2.148l.979-.205c.292 1.447.979 2.587 2.045 3.42 1.067.832 2.367 1.241 3.886 1.241.892 0 1.695-.146 2.411-.438a5.507 5.507 0 001.841-1.198 4.99 4.99 0 001.169-1.768c.277-.672.409-1.417.409-2.206 0-.701-.103-1.33-.307-1.9a4.08 4.08 0 00-1.008-1.519c-.468-.453-1.096-.862-1.885-1.212-.789-.351-1.768-.672-2.937-.98-1.081-.277-2.001-.598-2.746-.964-.745-.365-1.359-.774-1.826-1.227a4.202 4.202 0 01-1.023-1.563c-.219-.585-.322-1.227-.322-1.929 0-.89.176-1.709.512-2.454a5.753 5.753 0 011.402-1.929 6.346 6.346 0 012.046-1.241 7.016 7.016 0 012.498-.439c1.651 0 3.01.424 4.062 1.257a6.069 6.069 0 012.133 3.2l-1.052.248c-.365-1.14-1.008-2.046-1.958-2.703-.95-.658-2.045-.979-3.287-.979-.789 0-1.505.117-2.162.365-.658.249-1.213.585-1.681 1.037a4.499 4.499 0 00-1.081 1.564 5.015 5.015 0 00-.38 1.943c0 .628.088 1.183.263 1.665.176.483.497.906.935 1.3.439.38 1.038.731 1.783 1.053.745.321 1.665.613 2.761.89 1.169.322 2.148.688 2.951 1.082.804.394 1.461.862 1.958 1.388.497.526.862 1.11 1.081 1.768.263.657.365 1.402.365 2.25zm-18.116 6.34L105.41 28.375h4.032c.847 0 1.622-.132 2.323-.41a4.908 4.908 0 001.782-1.139 5.235 5.235 0 001.125-1.753c.263-.672.395-1.432.395-2.28 0-1.68-.497-3.023-1.491-4.017-.993-.993-2.352-1.49-4.061-1.49h-5.493v22.382h-1.052V16.293h6.603c1.023 0 1.929.16 2.732.496a5.732 5.732 0 012.046 1.373 5.918 5.918 0 011.285 2.075 7.33 7.33 0 01.439 2.557 7.22 7.22 0 01-.409 2.41 5.881 5.881 0 01-1.257 2.09c-.555.613-1.256 1.11-2.06 1.49-.818.38-1.768.584-2.849.584h-1.68l9.57 10.315h-1.403v-.015zm-30.432 0V16.293h11.76v.978H86.607v10.067h10.33v.979h-10.33V38.66h10.71v.98H85.555v.028zm-10.651.775L68.549 19.14l-6.356 21.302-6.706-24.136h1.052l5.684 20.498 6.326-21.258 6.326 21.258 5.683-20.498h1.052l-6.706 24.136zM53.077 27.98c0 1.666-.278 3.215-.848 4.661a12.04 12.04 0 01-2.323 3.813 10.777 10.777 0 01-3.448 2.557 9.857 9.857 0 01-4.222.935c-1.505 0-2.907-.307-4.222-.935a10.776 10.776 0 01-3.448-2.557c-.979-1.081-1.753-2.352-2.323-3.813a12.94 12.94 0 01-.847-4.66c0-1.666.277-3.215.847-4.661a12.04 12.04 0 012.323-3.813 10.774 10.774 0 013.448-2.557 9.858 9.858 0 014.222-.935c1.505 0 2.908.307 4.222.935a10.776 10.776 0 013.448 2.557c.98 1.08 1.754 2.352 2.323 3.813.57 1.446.848 3.01.848 4.66zm-1.081 0c0-1.548-.249-2.98-.76-4.31-.511-1.329-1.198-2.498-2.075-3.491a9.695 9.695 0 00-3.097-2.338 8.877 8.877 0 00-3.813-.847c-1.359 0-2.63.277-3.813.847a9.488 9.488 0 00-3.098 2.338 11.127 11.127 0 00-2.074 3.492c-.512 1.329-.76 2.775-.76 4.31 0 1.548.248 2.98.76 4.31.511 1.329 1.198 2.498 2.074 3.491a9.695 9.695 0 003.098 2.338 8.877 8.877 0 003.813.847c1.358 0 2.63-.277 3.813-.847a9.488 9.488 0 003.097-2.338 11.125 11.125 0 002.075-3.492c.511-1.314.76-2.76.76-4.31zm-34.64 11.688V16.293h1.051v22.382h10.71v.979H17.354v.014zM1.503 17.286v10.066h10.329v.98H1.503v11.336H.453V16.293h11.76v.978H1.505v.015zM94.262 1.288h-2.03v6.326h-.848V1.288h-2.03v-.76h4.908v.76zM81.332 5.57c0 .614-.233 1.11-.7 1.52-.468.409-1.053.613-1.74.613-.672 0-1.241-.19-1.68-.584a1.988 1.988 0 01-.73-1.403l.833-.175c.014.409.19.745.482.993.307.249.686.366 1.14.366.452 0 .832-.117 1.11-.366a1.17 1.17 0 00.438-.935.97.97 0 00-.38-.803c-.248-.19-.701-.366-1.33-.512-.745-.175-1.27-.409-1.592-.73-.307-.278-.453-.658-.453-1.125 0-.57.22-1.037.658-1.417.438-.38.978-.57 1.607-.57.613 0 1.125.16 1.548.497.38.306.614.716.687 1.212l-.833.176a1.183 1.183 0 00-.482-.79 1.607 1.607 0 00-.964-.292c-.394 0-.73.103-.979.307a.956.956 0 00-.394.79c0 .277.117.496.35.657.234.16.643.321 1.228.467.788.19 1.344.453 1.68.79.336.335.496.773.496 1.314zM68.797 7.614h-1.081l-3.068-3.681h1.066c.453 0 .804-.117 1.096-.366.278-.233.424-.555.424-.964a1.24 1.24 0 00-.424-.964c-.278-.248-.643-.365-1.096-.365h-1.388V7.6h-.847V.514h2.308c.702 0 1.271.205 1.695.614.395.38.6.876.6 1.475 0 .555-.176 1.023-.527 1.388-.35.365-.789.57-1.315.57l2.557 3.053zm-14.595 0h-.848V.53h.848v7.085zm-9.73-6.326h-3.317v2.367h3.2v.76H41.17v3.214h-.848V.543h4.179v.745h-.03z" fill="#131313"/></svg>
